X: 331
T: Nocturne No. 14	 Op. 48
C: Fryderyk Chopin
%%abc-version 2.0
%%abcx-abcm2ps-target-version 5.9.1 (29 Sep 2008)
%%abc-creator hum2abc beta
%%abcx-conversion-date 2021/10/03 11:23:28
%%abc-edited-by Tomasz Sierawski
%%abc-edited-by Mateusz Mrugas
%%abc-edited-by Marta Lawrence
%%abcx-initial-encoding-date 2018-07-04
%%humdrum-veritas 1737733984
%%humdrum-veritas-data 600411036
%%linebreak <none>
%%barnumbers 0
L: 1/8
M: C
N: Derived from 048_2-1a-Sm-002.krn
P: 13 et 14 Nocturne pour piano
Q: "Andantino."
%%staves {1 2}
V: 1 clef=treble
V: 2 clef=bass
K: A
[V:1] x6[D2F,2] & z2C6- | 
[V:2] C,,8- | 
[V:1] [^E2G,2][F2A,2]A2G3/F/ & C4[E2C2]-[E2C2B,2] | 
[V:2] C,,8 | 
[V:1] {/A,}F2f2e2dc | 
[V:2] (3.F,,C,A,F,2(3F,,C,^A,F,2 | 
[V:1] edcB cGA{/c}B | 
[V:2] (3B,,F,DG,2(3C,^E,CB,2 | 
[V:1] AFf^e=e2dc | 
[V:2] (3F,,C,A,F,2(3^A,,E,CF,2 | 
[V:1] edcB cB (3BAG | 
[V:2] (3B,,F,DG,2(3C,^E,CB,2 | 
[V:1] F2GAB4- | 
[V:2] (3F,A,DC2(3=F,A,E^D2 & (3:2:6x2<A,2x2 x2<A,2x2 | 
[V:1] Bcde gfed | 
[V:2] (3E,A,FE2(3E,G,ED2 & (3:2:6x2<A,2x2 x2<G,2x2 | 
[V:1] c2^Bc^d4- | 
[V:2] (3A,,E,CA,2(3A,,^D,C^^F,2 | 
[V:1] defg ba (3agf | 
[V:2] (3G,,^D,CG,2(3G,,D,^B,G,2 | 
[V:1] g2cc'b2ag | 
[V:2] (3C,G,EC2(3^E,B,GC2 | 
[V:1] bagf g^d (3egf | 
[V:2] (3F,CA^D2(3G,^B,GF2 | 
[V:1] ecc'^b=b2ag | 
[V:2] (3C,G,EC2(3^E,B,GC2 | 
[V:1] bagf gf (3fe^d | 
[V:2] (3F,CA^D2(3G,^B,GF2 | 
[V:1] c2^def4- | 
[V:2] (3C,G,EC2(3=C,F,E^A,2 | 
[V:1] fgab ^d'c' (3c'ba | 
[V:2] (3B,,F,EB,2(3B,,F,^DA,2 | 
[V:1] g2^^fg^a4- | 
[V:2] (3E,B,G^D2(3E,^A,G^^C2 | 
[V:1] abc'^d' f'e' (3e'd'c' | 
[V:2] (3^D,^A,G^D2(3C,A,^^FD2 | 
[V:1] e'^d'c'b ^agec | 
[V:2] (3B,,^D,^DG,2(3C,G,E^A,2 | 
[V:1] ^d4G4 | 
[V:2] (3^D,G,^DB,2(3E,G,EB,2 | 
[V:1] B4E2^DC | 
[V:2] (3G,,^D,B,G,2(3C,E,B,G,2 | 
[V:1] ^D8- | 
[V:2] (3^D,,^A,,G,^D,2(3D,,A,,^^F,D,2 | 
[V:1] D2G2F2E^D | 
[V:2] (3G,,^D,^B,G,2(3G,,D,B,G,2 | 
[V:1] FE^DC EDCE | 
[V:2] (3G,,E,^A,G,2(3G,,C,A,G,2 | 
[V:1] ^D2g2f2e^d | 
[V:2] (3G,,^D,^B,G,2(3G,,D,B,G,2 | 
[V:1] fe^dc dc (3c^B^A | 
[V:2] (3C,G,E^A,2(3^D,^^F,^DC2 | 
[V:1] G8- | 
[V:2] (3G,,^D,^B,G,2(3G,,D,B,G,2 | 
[V:1] G4z4 | 
[V:2] (3G,,^D,^B,G,2(3G,,D,B,G,2 | 
[V:1] z4C2[D2F,2] & x4C4- | 
[V:2] (3C,,G,,C,G,2z4 | 
[V:1] [^E2G,2][F2A,2]A2G3/F/ & C4[E2-C2][E2B,2] | 
[V:2] z8 | 
[V:1] {/A,}F2f2e2dc | 
[V:2] (3F,,C,A,F,2(3F,,C,^A,F,2 | 
[V:1] edcB cGA{/c}B | 
[V:2] (3B,,F,DG,2(3C,^E,CB,2 | 
[V:1] AFf^e=e2dc | 
[V:2] (3F,,C,A,F,2(3^A,,E,CF,2 | 
[V:1] edcB cB (3BAG | 
[V:2] (3B,,F,DG,2(3C,^E,CB,2 | 
[V:1] F2GAB4- | 
[V:2] (3F,A,DC2(3=F,A,E^D2 & (3:2:6x2<A,2x2 x2<A,2x2 | 
[V:1] Bcde gf (3fed | 
[V:2] (3E,A,FE2(3E,G,ED2 | 
[V:1] c2^Bc^d4- | 
[V:2] (3A,,E,CA,2(3A,,^D,C^^F,2 | 
[V:1] defg ba (3agf | 
[V:2] (3G,,^D,CG,2(3G,,D,^B,G,2 | 
[V:1] g2cc'b2ag | 
[V:2] (3C,G,EC2(3^E,B,GC2 | 
[V:1] bagf g^d(3egf | 
[V:2] (3F,CA^D2(3G,^B,GF2 | 
[V:1] ec{/c2d2c2^B2c2c2}c'^b=b2ag | 
[V:2] (3C,G,EC2(3^E,B,GC2 | 
[V:1] bagf gf (3fe^d | 
[V:2] (3F,CA^D2(3G,^B,GF2 | 
[V:1] c2^de[f4F4]- | 
[V:2] (3C,G,EC2(3=C,F,E^A,2 | 
[V:1] [fF][gG][aA][bB] {/^d} [^d'd][c'c] (3[c'c][bB][aA] | 
[V:2] (3B,,F,EB,2(3B,,F,^DA,2 | 
[V:1] [g2G2][^^f^^F][gG][^a4^A4]- | 
[V:2] (3E,B,G^D2(3E,^A,G^^C2 | 
[V:1] [aA][bB][c'c][^d'^d] [f'f][e'e] (3[e'e][d'd][c'c] | 
[V:2] (3^D,^A,G^D2(3C,^^F,E^A,2 | 
[V:1] [e'e][^d'^d][c'c][bB] [^a^A][gG][eE][cC] | 
[V:2] (3B,,^D,^DG,2(3C,G,E^A,2 | 
[V:1] [^d4^D4][G4G,4] | 
[V:2] (3^D,,B,,B,^D,2(3E,,B,,B,E,2 | 
[V:1] [B4B,4][E2E,2][^D^D,][CC,] | 
[V:2] (3G,,,^D,,^D,G,,2(3C,,G,,G,^A,,2 | 
[V:1] ^D8- | 
[V:2] ^D,2-x6 & (3^D,,^A,,G,D,2(3D,,A,,^^F,D,2 | 
[V:1] D2G2F2E^D | 
[V:2] (3G,,^D,^B,G,2(3G,,D,B,G,2 | 
[V:1] FE^DC EDCE | 
[V:2] (3G,,C,^A,G,2(3G,,E,A,G,2 | 
[V:1] ^D2g2f2e^d | 
[V:2] (3G,,^D,^B,G,2(3G,,D,B,G,2 | 
[V:1] fe^dc dc (3c^B^A | 
[V:2] (3C,G,E^A,2(3^D,^^F,DC2 | 
[V:1] G8- | 
[V:2] (3G,,^D,^B,G,2(3G,,D,B,G,2 | 
[V:1] G4E4 ||  
[V:2] (3G,,^D,^B,G,2(3G,,F,B,G,2 ||  
[V:1]  [K:] [M:3/4][F2_D2_A,2F,2][_G2C2_G,2](5:4:5=G,/A,/C,/_G,/C/ | 
[V:2]  [K:] [M:3/4][_D,2_A,,2_D,,2][_E,2A,,2_E,,2]z2 | 
[V:1] _B>__B_A4 | 
[V:2] z6 | 
[V:1] [_A2_D2_A,2][_B2D2_B,2](5:4:5_G,/=A,/B,/D/_G/ | 
[V:2] [F,2_D,2F,,2][_G,2D,2_G,,2]z2 | 
[V:1] _e>_d_B2_G3/F/ | 
[V:2] z6 | 
[V:1] [_E2C2_G,2][F2C2G,2](5:4:5=G,/_A,/C,/_G,/C/ | 
[V:2] [_A,,2_A,,,2][A,,2A,,,2]z2 | 
[V:1] _B>_AF4 & _D6 | 
[V:2] =E,>F,_A,4 & _D,,2x4 | 
[V:1] [_E2C2_G,2][F2C2G,2](5:4:5=G,/_A,/C,/_G,/C/ | 
[V:2] [_A,,2_A,,,2][A,,2A,,,2]z2 | 
[V:1] [_G__B,]>[F_A,][_D2F,2-][F2_E2=A,2F,2] | 
[V:2] _D,,2x4 & _D,,>_A,,[_D,2D,,2][C,2C,,2] | 
[V:1] [_d2F2_D2][_B2F2_B,2][c2=G2D2] | 
[V:2] [_B,,2_B,,,2][_D,2_D,,2][_E,2_E,,2] | 
[V:1] {/_B} [_A_E=C]>[=GE_B,][A4E4C4] | 
[V:2] [_A,,_A,,,]>[_E,_E,,][E,4A,,4] | 
[V:1] [_c2_E2_C2][_A2E2_A,2][_B2F2C2] | 
[V:2] [_A,,2_A,,,2][_C,2_C,,2][_D,2_D,,2] | 
[V:1] {/_A} [_G_D_B,]>[FD_A,][G2D2B,2][A2F2D2A,2] | 
[V:2] [_G,,_G,,,]>[_D,_D,,][D,2G,,2][D,2D,,2] | 
[V:1] [_B2_G2_D2_B,2][c2_E2B,2](3:2:6=A,/E/_G/=E/F/c/ | 
[V:2] [_G,2_D,2_G,,2]!arpeggio![G,2_E,,2]!arpeggio![=A,2F,,2] | 
[V:1] [_e_G]>[_dF-][_B2F2][f3/_A3/F3/][=e/=G/] | 
[V:2] =A,>_B,_D2[=B,3/=B,,3/][C/C,/-] & _B,,6 | 
[V:1] [c2E2][f_AF]>[=e=G-][c2G2] | 
[V:2] =E2=B,>CE2 & C,2C,4 | 
[V:1] !accent![_e2_G2_E2]>>[_A2_A,2][A2G2E2A,2] | 
[V:2] [_A,4C,4][C,2C,,2] | 
[V:1] [F2_D2F,2][_G2C2_G,2](5:4:5!accent!=G,/_A,/C,/_G,/C/ | 
[V:2] [_D,2_A,,2_D,,2][_E,2A,,2_E,,2]z2 | 
[V:1] _B>__B_A4 | 
[V:2] z6 | 
[V:1] [^G2=E2^G,2][=A2^D2=A,2](5:4:5^A,/=B,/^D,/=A,/^D/ | 
[V:2] [=E,2=B,,2=E,,2][^F,2B,,2^F,,2]z2 | 
[V:1] {/^D} ^c>=B ^A=A2_G | 
[V:2] z6 | 
[V:1] [_A2-_E2C2_G,2][A2F2C2G,2](5:4:5=G,/_A,/C,/_G,/C/ | 
[V:2] [_A,,2_A,,,2][A,,2A,,,2]x2 | 
[V:1] _B>_AF4 & _D6 | 
[V:2] =E,>F,_A,4 & _D,,2x4 | 
[V:1] [_E2C2_G,2][F2C2G,2](5:4:5=G,/_A,/C,/_G,/C/ | 
[V:2] [_A,,2_A,,,2][A,,2A,,,2]z2 | 
[V:1] [_G__B,]>[F_A,][_D2F,2-][F2_E2=A,2F,2] | 
[V:2] _D,,>_A,,[_D,2D,,2][C,2C,,2] | 
[V:1] [_d2F2_D2][_B2F2_B,2][c2=G2D2] | 
[V:2] [_B,,2_B,,,2][_D,2_D,,2][_E,2_E,,2] | 
[V:1] {/_B} [_A_E=C]>[=GE_B,][A4E4C4] | 
[V:2] [_A,,_A,,,]>[_E,_E,,][E,2A,,2](5:4:5E,,/F,,/E,,/_B,,,/A,,,/ | 
[V:1] [_c2_E2_C2][_A2E2_A,2][_B2F2C2] | 
[V:2] [_A,,2_A,,,2][_C,2_C,,2][_D,2_D,,2] | 
[V:1] {/_A} [_G_D_B,]>[FD_A,][G2D2B,2][A2F2D2A,2] | 
[V:2] [_G,,_G,,,]>[_D,_D,,][D,2G,,2][D,2D,,2] | 
[V:1] [_B2_G2_D2_B,2][c2_E2B,2](3:2:6=A,/E/G/=E/F/c/- | 
[V:2] [_G,2_D,2_G,,2]!arpeggio![G,2_E,,2]!arpeggio![=A,2F,,2] | 
[V:1] [_ec_G]>[_dF-][_B2F2][f3/_A3/F3/][=e/=G/-] | 
[V:2] =A,>_B,_D2x2 & _B,,4[=B,3/=B,,3/][C/C,/-] | 
[V:1] [c2=G2][f_AF]>[=e=G-][c2G2E2] | 
[V:2] =E2=B,>Cx2 & C,2C,4 | 
[V:1] [_e2_G2_E2]>>[_A2_A,2]A2 & x4[G2E2A,2] | 
[V:2] [_A,4C,4][C,2C,,2] | 
[V:1] [F2_D2F,2][_G2C2_G,2](5:4:5=G,/_A,/C,/_G,/C/ | 
[V:2] [_D,2_A,,2_D,,2][_E,2A,,2_E,,2]z2 | 
[V:1] _B>__B_A4 | 
[V:2] z6 | 
[V:1] [^G2=E2^G,2][=A2^D2=A,2](5:4:5^A,/=B,/^D,/=A,/D/ | 
[V:2] [E,2=B,,2=E,,2][^F,2=B,,2^F,,2]z2 | 
[V:1] ^c>=B ^A=A2_G | 
[V:2] z6 | 
[V:1] [_A2_E2C2_G,2][A2F2C2G,2](5:4:5=G,/_A,/C,/_G,/C/ | 
[V:2] [_A,,2_A,,,2][A,,2A,,,2]z2 | 
[V:1] _B>_AF4 & _D2[F4C4] | 
[V:2] !arpeggio!=E,>F,_A,4 & !arpeggio!_D,,3x3 | 
[V:1] [c2=G2=E2_B,2][c2_A2E2B,2](3:2:6=B,/C/^D/=E/G/_B/ | 
[V:2] [C,2C,,2][C,2C,,2]z2 | 
[V:1] [_d=E]>[cF-] [_AF] [d/E/]>[c/F/-][A2F2] | 
[V:2] {/F,,} =G,>_A, C G,/>A,/C2 | 
[V:1] [_a2_e2c2_G2][a2f2c2G2](5:4:5=G/_A/C/_G/c/ & x4(5:4:5x/ x/ C/ x/ x/ | 
[V:2] [_A,2_A,,2][A,2A,,2]z2 | 
[V:1] [_b_d]>_a (13:8:13f/d/A/F/_D/_A,/F,/D,/_B,,/_A,,/F,,/_D,,/_B,,,/ & {/_D,} =E>F_A2x2 | 
[V:2] x2z2z2 | 
[V:1] [_E2C2_G,2]F7/_G/ | 
[V:2] x2[C4_G,4] & _A,,,2[_A,,4A,,,4] | 
[V:1] ^F2F7/F/ ||  
[V:2] [^C6^F,6] & [=A,,6=A,,,6] ||  
[V:1]  [K:A] [M:C]{/F,}[F2C2F,2]f2e2dc | 
[V:2]  [K:A] [M:C]{/^A,,,} (3^A,,E,CF,2(3A,,E,CF,2 | 
[V:1] edcB cGA{/c}B | 
[V:2] (3B,,F,DG,2(3C,^E,CB,2 | 
[V:1] AF{/F2G2F2^E2F2F2}f^e=e2dc | 
[V:2] (3F,,C,A,F,2(3^A,,E,CF,2 | 
[V:1] ed(3dcB cG(3AcB | 
[V:2] (3B,,F,DG,2(3C,^E,CB,2 | 
[V:1] A2GA!accent!^A4- | 
[V:2] (3F,,C,A,F,2(3E,^A,^^FC2 | 
[V:1] ABcd ef=g^A | 
[V:2] (3C,^^F,E^A,2(3^A,,E,C=G,2 | 
[V:1] B2^AB^B4- | 
[V:2] (3^D,F,FB,2(3F,^B,=A^D2 | 
[V:1] Bc^d^e fgaF | 
[V:2] (3^D,A,F^B,2(3^B,,F,^DA,2 | 
[V:1] ^Ez/^e/!trill!e2{/^de} gf(3fe=d | 
[V:2] (3B,,D,=DG,2(3A,,C,CF,2 | 
[V:1] ^Bc{/e}dc CGA=B | 
[V:2] (3^E,,C,=B,G,2(3E,,C,B,G,2 | 
[V:1] AFGA!accent!D4- | 
[V:2] (3F,,C,A,F,2(3B,,D,A,F,2 | 
[V:1] AFGA!accent!B,4 & (3DxCx6 | 
[V:2] (3C,F,CA,2(3D,F,FG,2 | 
[V:1] f'4e'd'c'b | 
[V:2] z8 | 
[V:1] gfdc ^ABc{/e}d | 
[V:2] z8 | 
[V:1] C2z2c4 | 
[V:2] (3C,,F,FA,2(3C,F,FA,2 | 
[V:1] dcBA GFBA | 
[V:2] (3C,F,CA,2(3C,F,CA,2 | 
[V:1] {/FG}!trill!G8 | 
[V:2] (3C,F,CG,2(3C,F,CG,2 | 
[V:1] !trill!G8{/^^FG} | 
[V:2] (3C,^E,CG,2(3C,E,CG,2 | 
[V:1] c4^B4 | 
[V:2] (3C,=E,EG,2(3G,,^D,^DG,2 | 
[V:1] =B4^A4 | 
[V:2] (3B,,^D,^DF,2(3F,,C,CF,2 | 
[V:1] =A4A4- | 
[V:2] (3F,,^B,,A,^D,2(3=F,,B,,A,D,2 | 
[V:1] A2>G2 {/GB}A2G2 | 
[V:2] (3E,,C,A,E,2(3^E,,B,,G,C,2 | 
[V:1] {/C2[c2F2]c2}[c'4f4c4][^b4g4^B4] | 
[V:2] (3A,,C,CF,2(3G,,^D,^DG,2 | 
[V:1] [=b4^e4=B4][^a4f4^A4] | 
[V:2] (3=G,,^E,^EC2(3F,,F,FC2 | 
[V:1] [=a4B4=A4][a4-^B4A4-] | 
[V:2] (3[^D,^D,,]F,FB,2(3[=D,=D,,]F,F^B,2 | 
[V:1] [a2A2]>[g2G2][a3A3][gG] & c4{/B2B2c2-b2}c4 | 
[V:2] (3[C,C,,]F,FC2(3[C,,C,,,]C,B,^E,2 | 
[V:1] c4e2dc & [g2G2][f6F6]- | 
[V:2] (3[F,,F,,,]C,A,F,2(3F,,C,^A,F,2 | 
[V:1] edcB dcBd & [f8F8]- | 
[V:2] (3F,,D,B,F,2(3F,,B,,G,F,2 | 
[V:1] c2F6- & [f2F2]x2E2DC | 
[V:2] (3F,,C,^A,F,2(3F,,C,A,F,2 | 
[V:1] F4C4 & ED(3DCB, CB,(3B,^A,G, | 
[V:2] (3x2<D,2x2x4 & (3B,,D,G,F,2(3C,,C,C^E,2 | 
[V:1] [C2F,2]{/^B,C}!trill!C4{/B,C} =B z | 
[V:2] (3F,,C,^A,F,2(3F,,C,B,^E,2 | 
[V:1] ^A2{/^B,C}!accent!!trill!C4{/B,C} G z | 
[V:2] (3F,,C,^A,F,2(3F,,C,B,^E,2 | 
[V:1] F2{/^B,C}!accent!!trill!C4{/B,C C} [^d=B] z | 
[V:2] (3F,,C,^A,F,2(3F,,C,B,^E,2 | 
[V:1] [c2^A2]{/^B,C}!accent!!trill!C4{/B,C C} [cBG] z | 
[V:2] (3F,,C,^A,F,2(3F,,C,B,^E,2 | 
[V:1] [c2^A2F2]{/^B,C}!accent!!trill!C6 | 
[V:2] (3!accent!F,,C,^A,F,2(3!accent!^E,,C,A,F,2 | 
[V:1] C8{/^B,2C2^D2^E2F2G2^A2=B2c2d2e2f2g2a2b2c'2d'2e'2f'2g'2} | 
[V:2] (3!accent!^D,,C,^A,F,2(3!accent!C,,C,A,F,2 | 
[V:1] .^a'2z2!accent!!fermata![f4^A4F4] |]  
[V:2] [F,,2F,,,2]z2!fermata!!arpeggio![C4F,4C,4F,,4] |]
